contributed-vectors/abc_news.svg

<?xml version="1.0" encoding="UTF-8" standalone="no"?>
<svg
   xmlns:dc="http://purl.org/dc/elements/1.1/"
   xmlns:cc="http://creativecommons.org/ns#"
   xmlns:rdf="http://www.w3.org/1999/02/22-rdf-syntax-ns#"
   xmlns:svg="http://www.w3.org/2000/svg"
   xmlns="http://www.w3.org/2000/svg"
   xmlns:sodipodi="http://sodipodi.sourceforge.net/DTD/sodipodi-0.dtd"
   xmlns:inkscape="http://www.inkscape.org/namespaces/inkscape"
   sodipodi:docname="abc_news.svg"
   inkscape:version="1.0.1 (3bc2e813f5, 2020-09-07)"
   version="1.1"
   id="svg2"
   viewBox="0 0 192 192"
   height="192"
   width="192"
   inkscape:export-filename="/home/jphilippe/inkscape/icônes/delta-github/png/abc_news.png"
   inkscape:export-xdpi="96"
   inkscape:export-ydpi="96">
  <sodipodi:namedview
     inkscape:document-rotation="0"
     inkscape:window-maximized="1"
     inkscape:window-y="30"
     inkscape:window-x="1920"
     inkscape:window-height="1022"
     inkscape:window-width="1680"
     units="px"
     showgrid="false"
     inkscape:current-layer="layer1"
     inkscape:document-units="px"
     inkscape:cy="249.4784"
     inkscape:cx="180.89977"
     inkscape:zoom="1"
     inkscape:pageshadow="2"
     inkscape:pageopacity="0.0"
     borderopacity="1.0"
     bordercolor="#666666"
     pagecolor="#ffffff"
     id="base"
     inkscape:snap-bbox="false"
     inkscape:object-paths="true"
     inkscape:snap-nodes="true"
     showguides="true"
     inkscape:guide-bbox="true"
     inkscape:snap-object-midpoints="true"
     inkscape:snap-center="true"
     inkscape:snap-global="false"
     inkscape:snap-intersection-paths="true"
     inkscape:snap-smooth-nodes="true"
     inkscape:snap-midpoints="true" />
  <defs
     id="defs4" />
  <metadata
     id="metadata7">
    <rdf:RDF>
      <cc:Work
         rdf:about="">
        <dc:format>image/svg+xml</dc:format>
        <dc:type
           rdf:resource="http://purl.org/dc/dcmitype/StillImage" />
        <dc:title />
      </cc:Work>
    </rdf:RDF>
  </metadata>
  <g
     transform="translate(0,-860.36216)"
     id="layer1"
     inkscape:groupmode="layer"
     inkscape:label="Calque 1">
    <rect
       style="fill:#56595b;fill-opacity:1;fill-rule:evenodd;stroke:none;stroke-opacity:1"
       width="153"
       height="153"
       x="19.5"
       y="879.86218"
       rx="10"
       id="rect980" />
    <g
       id="g939"
       transform="matrix(0.073,0,0,0.073,59.5,914.11724)"
       style="fill:#ffffff;fill-opacity:1">
      <path
         d="m 144.01567,0.6953617 c 37.79435,-0.5937 83.74825,13.5402103 114.74755,51.7885603 14.04161,13.58512 39.84484,78.891438 39.84484,78.891438 l 154.5475,410.43954 c 19.87627,49.28158 79.64478,52.97346 97.19367,3.71184 l 48.00689,-129.44772 81.96717,215.72541 C 640.47845,704.53941 601.9083,722.36769 556.1839,738.98613 502.93604,755.64947 439.11145,750.15406 393.42946,721.77399 378.24785,711.92815 338.40301,686.05757 311.45979,620.70634 L 148.71283,165.86698 V 580.0458 l 60.9085,-175.01497 78.14059,218.48433 C 276.3645,673.68728 240.07683,715.60756 197.9071,735.32418 151.7711,757.06884 96.744662,749.36579 55.031431,722.98882 13.49531,692.17162 1.7785871,655.8141 0,591.09898 L 0.54879266,143.09458 C 5.2883656,68.488712 52.975953,27.868082 94.826382,9.6781017 c 19.100478,-6.79256 27.262518,-8.64099 49.189288,-8.98274 z"
         id="path935"
         inkscape:connector-curvature="0"
         style="fill:#ffffff;fill-opacity:1;stroke-width:2.49451" />
      <path
         d="M 855.98184,747.62961 C 818.18998,748.29315 772.23608,734.0894 741.18689,695.9084 727.14528,682.32578 701.38695,617.01945 701.38695,617.01945 L 546.84444,206.57742 c -19.92117,-49.35143 -79.64478,-53.04331 -97.19617,-3.73928 L 401.64139,332.29086 319.67172,116.56295 c 39.79994,-72.667628 78.45989,-90.563258 124.1394,-107.2241083 53.29275,-16.66334 117.11734,-11.10058 162.75444,17.2769903 15.2265,9.84834 55.02644,35.71892 81.96717,101.072638 l 162.75194,454.777 V 168.35152 L 790.42606,343.36649 712.23808,124.88215 C 723.6355,74.642672 759.97056,32.769792 802.14029,13.075622 848.23389,-8.6241383 903.30523,-0.9884383 944.97106,25.406002 986.54959,56.155852 998.22141,92.583212 1000,157.22849 l -0.5912,448.07424 c -4.64977,74.60587 -52.38226,115.24895 -94.28008,133.41648 -18.96578,6.76761 -27.17272,8.58861 -49.14688,8.9104 z"
         id="path937"
         inkscape:connector-curvature="0"
         style="fill:#ffffff;fill-opacity:1;stroke-width:2.49451" />
    </g>
    <text
       xml:space="preserve"
       style="font-weight:bold;font-size:24.9893px;line-height:1.25;font-family:Now;-inkscape-font-specification:'Now Bold';letter-spacing:0px;word-spacing:0px;fill:#ffffff;fill-opacity:1;stroke-width:0.624733"
       x="57.657097"
       y="998.35718"
       id="text984"><tspan
         sodipodi:role="line"
         id="tspan982"
         x="57.657097"
         y="998.35718"
         style="fill:#ffffff;fill-opacity:1;stroke-width:0.624733">NEWS</tspan></text>
  </g>
  <style
     type="text/css"
     id="style853">
	.st0{fill:#FFFFFF;}
</style>
</svg>

<svg xmlns="http://www.w3.org/2000/svg" id="svg2" width="192" height="192" version="1.1"><g id="layer1" transform="translate(0 -860.362)"><rect id="rect980" width="153" height="153" x="19.5" y="879.862" rx="10" style="fill:#56595b;fill-opacity:1;fill-rule:evenodd;stroke:none;stroke-opacity:1"/><g id="g939" style="fill:#fff;fill-opacity:1" transform="matrix(.073 0 0 .073 59.5 914.117)"><path id="path935" d="M144.016.695c37.794-.593 83.748 13.54 114.747 51.789 14.042 13.585 39.845 78.891 39.845 78.891l154.548 410.44c19.876 49.281 79.644 52.973 97.193 3.712l48.007-129.448 81.967 215.725c-39.845 72.735-78.415 90.564-124.14 107.182-53.247 16.663-117.072 11.168-162.754-17.212-15.181-9.846-55.026-35.716-81.97-101.068L148.714 165.867v414.179L209.62 405.03l78.14 218.484c-11.397 50.172-47.684 92.093-89.854 111.81-46.136 21.744-101.162 14.04-142.876-12.336C13.495 692.172 1.78 655.814 0 591.099l.549-448.004C5.289 68.489 52.976 27.868 94.826 9.678c19.1-6.792 27.263-8.64 49.19-8.983z" style="fill:#fff;fill-opacity:1;stroke-width:2.49451"/><path id="path937" d="M855.982 747.63c-37.792.663-83.746-13.54-114.795-51.722-14.042-13.582-39.8-78.889-39.8-78.889L546.844 206.577c-19.92-49.351-79.644-53.043-97.196-3.739l-48.007 129.453-81.97-215.728c39.8-72.668 78.46-90.563 124.14-107.224 53.293-16.663 117.117-11.1 162.755 17.277 15.226 9.848 55.026 35.719 81.967 101.072l162.752 454.777V168.352l-60.859 175.014-78.188-218.484c11.397-50.24 47.733-92.112 89.902-111.806 46.094-21.7 101.165-14.064 142.831 12.33 41.579 30.75 53.25 67.177 55.029 131.822l-.591 448.075c-4.65 74.606-52.382 115.249-94.28 133.416-18.966 6.768-27.173 8.589-49.147 8.91z" style="fill:#fff;fill-opacity:1;stroke-width:2.49451"/></g><text xml:space="preserve" id="text984" x="57.657" y="998.357" style="font-weight:700;font-size:24.9893px;line-height:1.25;font-family:Now;-inkscape-font-specification:&quot;Now Bold&quot;;letter-spacing:0;word-spacing:0;fill:#fff;fill-opacity:1;stroke-width:.624733"><tspan id="tspan982" x="57.657" y="998.357" style="fill:#fff;fill-opacity:1;stroke-width:.624733">NEWS</tspan></text></g><style id="style853" type="text/css">.st0{fill:#fff}</style></svg>
